X: 17084
T: Hector The Hero
R: waltz
M: 3/4
K: Gmajor
G>A|"G"B3A A>G|"C"e3d d>B|"G"d2 d2 G>A|"Em"B3A A>G|
"C"e3g e/d/B|"D"A2 A2 G>A|"Em"B3A A>G|"C"e3d d>e|
"G"d2 d2 G>A|"Em"B2 g>a g>e|"G"d2 G2 G/A/B|"A"A2 A>G G2|1 "G"G2 G2 G>A|2 "G"G2 G2 G2||
G/B/d|"C"e2 e>g ge|"C"g2 ga/g/ f/e/|"G"d2d2 d2|"G"d2 G2 G/B/d|
"Em"e2 e>d d>e|"Em"d2 d2 G/A/B|"Am"A2A2 A2|"D"A2 G2 G/B/d|
"Em"e2 e>g g>e|"C"g2 ga/g/ f>e|"G"d2 d>G GA|"Em"B2 g>a g>e|
"G"d2 G2 G/A/B|"D"A2 A>G G2|1 "G"G2 G2 G/B/d|2 "G"G2 G2 G2||

